X: 1
T: Oddville Cupola
C: by Claude Ginsburg
%D:1999
R: march
S: Fiddle Hell Online 2022-3-26 handout for Fiddle Hell jam session
B: the Portland Collection 2 p.133 & 3 p.151
Z: 2022 John Chambers <jc:trillian.mit.edu>
M: C|
L: 1/8
K: Dm
|:\
"Dm"A4 FGA2 | "C"G6 E2 | "Dm"F2D2 D2EF | "C"G2E2 E2G2 ||\
"Dm"A2A2 FGA2 | "C"G6 E2 | "Bb"F2D2 "C"G2E2 | "Dm"F2D2 D4 :|
|:\
"C"G4 EFG2 | "Bb"F6 E2 | F2D2 D2EF | "C"G2E2 E2F2 ||\
"C"G2G2 EFG2 | "Bb"F6 E2 | F2D2 "C"G2E2 | "Dm"F2D2 D4 :|[K:=B][K:Gmix]
|:\
"G"d3c B2c2- | c2A2 B4 | B2G2 c2A2 | B2G2 ABc2 ||\
"G"d3c B2c2- | c2A2 B4 | B2G2 c2B2 | G4 G4 :|[K:F]
|:\
"Bb"A3G F2G2- | G2E2 F4 | F2D2 D2EF | "C"G2E2 E2G2 ||\
"Bb"A3G F2G2- | G2E2 F4 | F2D2 "C"G2E2 | "G"D4 D4 :|
%%center Once through the tune is twice through a contra dance.
